!!!OTL: D' K&auml;ttche sollt op d' Kirmes goen, S. 38
!!!id: R0051
**kern
*clefG2
*k[]
*G:
{8g
=1
8g
4g
4g
8g
=2yy
8a
=3
4b
4b
4b
=4
2dd
4ee
=5
2dd}
=6
{4b
=7
8dd
8dd
4ee
4dd
=8
4dd
4cc
4b}
=9
{4dd
8a
8a
4a
=10
4b
8g
8g
4g}
=11
{4a
4d
4d
=12
2g
4b
=13
4a
8a
8a
4a
=14
2g}
4r
==
*-
!!!minrhy: 8
!!!meters: 3/4 ]  ZZ[4
!!!cut: D' K&auml;ttche sollt op d' Kirmes goen, S. 38
!!!reg: Luxemburg
!!!trd: D'Fraen um Kanddaaf an der aler Zeit, Luxemburg 1929
!!!rhy1:   X_X_XX  X_X_X_  X__X_  X__
!!!rhy2: X_  XXX_X_  X_X_X_
!!!key: R0051  08  G 3/4 ]  ZZ[4
!!!mod: SECHSTONSKALA DUR ?]  AMBITUS[9
!!!kad: 5311
!!!akz: 1355_55_53_2121_
!!!fot: 'a__b__c__d__
!!!for: 'a__b__c__d__
!!!fok: '/__^__\__Sd_
!! PHRAS[VORWIEGEND VOLLTAKTIG]
!!!fkt: ??, Walzer
!! RUDEN, J.M.:
!! PR[10] 2K[7] 2G[33] 3K[7] 3G[0] 4A[0] 4Ü[0] 5A[0] 6K[0] 6G[3]
!! 7K[0] 7G[0] 8A[0] MEHR[0] SI[50] ABS[30] SR[40] SP[10]
!! ST[16] 2k[10] 2g[10] 3k[0] 3g[13] 4d[3] 4ü[0] 5d[3] 6k[0] 6g[0]
!! 7k[0] 7g[0] 8d[0] mehr[0] si[40] dm[+10] sr[20] sp[20]
!! 1F[3] 2F[58] 3F[16] 4F[0] LF[0] 2P[3] 3P[19] 4P[0] TRI[0] DF[5] AB[31]
!! TF[0] U3K[0] U3[0] U4[0] U4Ü[0] U5[6] U6K[0] U6[3] U7K[0] U7[3]
!! N1[29] N2K[0] N2[23] N3K[0] N3[23] N4[10] N4Ü[0] N5[3] N6K[0] N6[0]
!!!n7k: 0] N7[0] O1[0] O2K[0] O2[0] O3K[0] O3[0] HÖ[0
!!!RNB: symbol: &auml;      = a umlaut  (UTF-8: Å„)
